X: 16
T: Lift Up Your Heads, Ye Mighty Gates
C: Words: Georg Weissel, 1642. Translated by Catherine Winkworth, 1855.
C: Music: 'Milwaukee' or 'Macht hoch die Tür (Lemke)' August Lemke, 1849.
C: Setting: "Concordia Kinderchöre", 1908.
C: Arranged for SSAATTBB by Claude, 2026.
C: copyright: public domain.
M: 3/4
L: 1/4
Q: 1/4=140
%%staves {(V1 V2) (V3 V4) (V5 V6) (V7 V8)}
V:1 name="Soprano I"  clef=treble
V:2 name="Soprano II" clef=treble
V:3 name="Alto I"     clef=treble
V:4 name="Alto II"    clef=treble
V:5 name="Tenor I"    clef=treble middle=B3 transpose=-12
V:6 name="Tenor II"   clef=treble middle=B3 transpose=-12
V:7 name="Baritone"   clef=bass
V:8 name="Bass I"     clef=bass
K: A
%%
%% PHRASE 1 — bars 1–7 + pickup
%% Texture: SSAA + TTBB antiphonal, opening with 6 voices (S1 A1 T1 B1 + partners joining)
%%
[V:1] E | c2 A | (A G) A | B2 G | E2 E | (E F) G | A2 F | E2 D |
[V:2] E | A2 E | (E E) E | G2 E | C2 C | (C D) E | F2 D | C2 B, |
[V:3] C | E2 C | (C B,) C | E2 B, | A,2 A, | (A, B,) C | C2 A, | A,2 G, |
[V:4] A, | A,2 A, | A,2 A, | E2 E | E2 E | (E D) E | E2 D | E2 E |
[V:5] G | E2 E | (E E) E | E2 E | E2 E | (E F) G | E2 C | C2 B, |
[V:6] E | C2 A, | (C B,) A, | B,2 B, | G,2 G, | (G, A,) B, | C2 A, | A,2 G, |
[V:7] G, | A,2 C | (A, B,) C | B,2 B, | G,2 G, | (G, A,) B, | A,2 A, | A,2 G, |
[V:8] E, | A,,2 A,, | (C, B,,) A,, | G,,2 B,, | E,2 E, | E,2 D, | C,2 D, | E,2 E, |
%%
%% PHRASE 2 — bars 8–15
%% Full 8-voice homophony, building toward phrase 2 cadence
%%
[V:1] C2 C | (E A) c | (B G) E | (A F) ^D | E2 E | A2 B | c2 A | G2 |]
[V:2] A,2 A, | (C E) E | E2 B, | (F D) B, | B,2 C | E2 F | E2 F | E2 |]
[V:3] E2 E | (A, C) E | (E E) B, | (C A,) F | G,2 G, | (E F) F | E2 C | B,2 |]
[V:4] A,2 C | A,2 A, | B,2 G, | A,2 F, | E,2 E | C2 D | C2 A, | B,2 |]
[V:5] E2 E | E2 A | B,2 G, | (F A,) F | G,2 G, | F,2 G, | A,2 E | B,2 |]
[V:6] C2 C | C2 E | B,2 E, | (D, F,) D, | E,2 E, | D,2 E, | E,2 C, | G,,2 |]
[V:7] A,,2 A,, | (A,, C,) A,, | G,,2 G,, | A,,2 B,, | E,2 C, | F,,2 E,, | A,,2 F,, | B,,2 |]
[V:8] A,,2 A,, | A,,2 A,, | G,,2 G,, | F,,2 F,, | E,2 E, | F,,2 E,, | A,,2 F,, | B,,2 |]
%%
%% PHRASE 3 — bars 16–22 + pickup
%% Antiphonal: SSAA answers TTBB; soprano climbs toward high register
%%
[V:1] F | E2 A | G2 B | A2 c | B2 d | c2 E | (d c) B | (A G) F |
[V:2] D | B,2 E | E2 E | E2 A | G2 G | A2 C | (B A) G | (F E) D |
[V:3] D | G,2 C | B,2 G, | A,2 E | E2 E | E2 A, | (B, A,) G, | A,2 F, |
[V:4] B, | E,2 A, | G,2 E, | E,2 C | E2 B, | C2 A, | (G, A,) B, | (F, E,) D, |
[V:5] B, | G,2 E | B,2 G, | A,2 A, | B,2 B, | A,2 G, | (B, A,) G, | A,2 A, |
[V:6] G, | E,2 C | G,2 E, | F,2 F, | G,2 G, | F,2 E, | (G, F,) E, | (F, E,) D, |
[V:7] B,, | E,2 A,, | E,2 D, | C,2 A,, | G,,2 G,, | A,,2 E, | (G,, A,,) B,, | C,2 D, |
[V:8] B,, | E,2 A,, | E,2 D, | C,2 A,, | G,,2 G,, | A,,2 E, | (G,, A,,) B,, | C,2 D, |
%%
%% PHRASE 4 — bars 23–30 (final phrase with sintro/eintro markings)
%% Full 8-voice, climax with S1 on high e5, B1 on low A2, stretto at cadence
%%
[V:1] E2 E | E2 !sintro!e | e2 c | d2 e | c2 E | (F d) B | A2 G | A2 !eintro!|]
[V:2] C2 B, | C2 C | C2 A | B2 C | A2 C | (D B) G | F2 E | E2 |]
[V:3] A,2 G, | A,2 A, | A,2 E | F2 G | E2 A, | (A, B,) B, | C2 B, | A,2 |]
[V:4] F,2 E, | F,2 F, | F,2 C | D2 E | C2 E | (F, G,) G, | A,2 G, | E,2 |]
[V:5] A,2 G, | A,2 C | B,2 A, | A,2 B, | A,2 A, | (A, B,) B, | C2 B, | A,2 |]
[V:6] F,2 E, | F,2 A, | G,2 F, | F,2 G, | F,2 F, | (D, G,) G, | E,2 E, | C,2 |]
[V:7] E,2 E, | A,,2 A, | G,2 A, | F,2 G, | A,2 A,, | (D, B,,) D, | E,2 E, | A,,2 |]
[V:8] E,2 E, | A,,2 A,, | G,,2 A,, | F,,2 G,, | A,,2 A,, | (D,, B,,) D,, | E,,2 E,, | A,,2 |]
